X: 25971
T: May Morning Dew, The
R: barndance
M: 4/4
K: Edorian
E2 (3F/E/D/ EA Je-|e6-|e6-|e6-|e4z2|z3/2a/f2Jg2-|g6-|{a}ge4{a}e-|e4z2|
egJB3{c}B|A6-|A2{c}AGJA2-|A6-|A-A4z|z6|E{A}E DEA Je-|e6-|e6-|e3z3|
ff3Jg2|Ja6-|a6-|a3z2 a/Jb/|{c'}a4{b}a/g/e/f/|{g}f4{a}fd-|d-d4{a}d-|{a}dc{a}d4-|!>!d6|
z6|z2E A Je2-|e6-|e4z2|f3{a}ge2|Ja6-|a6|z3/2a/Jb{c'}a3|{c'}a/g/e/Jg/f4-|f6|Jg{a}gfJg3-|g6|
z3z2a|Ja2{c'}age2-|e2A BJc2|c6-|c6-|c6-|!>!c3z3|zdea{E}=f2-|=f6-|=f6-|=f3z2{a}e|
dJeA4-|A6-|A2{c}AGA2-|A6-|A4z2|z6|z3E F/E/ D|JE2(3F/E/D/EA Je-|e6-|e6-|e4z2|
zgJa4-|a2{c'}a2{c'}(3agf|(3gafJg4-|g2{a}ge3-|e6-|e3z3|zegJB3-|B4cB|A3-A2{c}A/G/|JA6-|A6-|!>!A3z3|
z3z2a|bb3Jc'2-|c'6-|c'6-|b{c'}b/a/Jb3e-|e6|z2{a}e/d/efJg|{a}geJa4-|a6-|a4z2|
z3z2a|bb3Jc'2-|c'2-b2{c'}b.a|g/a/b{abag}ag/f/Jg2-|g6-|g6|
z3a/ba/b/a/|a3{c'}a/g/e2-|e4{a}e/d/B|Jc6-|c2-B4-|B6-|B4z2|z6|
zE (3F/E/D/ EA Je-|e6-|e6|z3fgg|Ja6-|a6|z3eeJ=f|e/d/eA4-|A6|{c}A{c}AGA3-|A6|z6|
z3E2(3F/E/D/|EA Je4-|e6-|e6-|e6-|ez4g|Ja2{c'}a/g/fg2-|g3{a}ge2-|g6-|g4z2|fJgJB4-|B3c/B/A2-|
A3-A2{B}A|GJA3-A2-|A6-|A3z3|z4E2|F/E/ DEA Je2-|e6-|e6-|ez3fg-|gJa3-a2-|a6-|a6-|b/a//b//a2{c'}(3agef-|
f2{a}fd3-|d2z{de}d2{a}d|c{de}d2-d3-|!>!d6|z6|zE{A}E/D/E/A/ Je2-|e6-|!>!e2z4|
eff3/2{a}g/eJa-|a6-|a6|z2a/b/Ja2{c'}a/g/|e{fg}f3-f2-|f2-f3Jg-|g{a}gfJg3-|g6-|g3z3|
z3Jga2-|a2{c'}agJe2-|e2ABJc2-|c6-|c6-|c6-|c3z3|zde.aJ!>!=f2-|=f6-|=f6-|=f6|
.ez2(3e/=f/e/dJe-|e-A3-A2-|A4{c}A/G/A/B/|A6-|A6-|A4z2|

